X: 8197
T: Coolin, The
R: strathspey
M: 4/4
K: Gmajor
de/f/|g2 g2 a>f|gd B2 (3GBd|g>f (3gab ag|g2 f2 gf/d/|
e3 f/g/ a(3g/f/e/|d2 B>d g>G|GB/d/ f3{fgf}e/d/|dc/A/ B2 GA/B/|
A2 G2 GF|G4 G2|dc B3A|GA Bc|d^c de fd|g>f (3gab a>g|
g2 f2 g>f/d/|e3 f/g/ a(3g/f/e/|d2 B>d g>G|GB/d/ f{fgf}e/d/|
dc/A/ B2 GA/B/|A2 G2 GF|G4 G4|G4 z2||

